configs/network-logos/creditcoin-logo-light.svg

<svg width="106" height="24" viewBox="0 0 106 24" fill="none" xmlns="http://www.w3.org/2000/svg">
<g clip-path="url(#clip0_11020_43112)">
<path fill-rule="evenodd" clip-rule="evenodd" d="M20.3076 16.8352C18.6374 19.6923 15.5384 21.6265 12.0001 21.6265C6.70336 21.6265 2.39553 17.3187 2.39553 12.0221C2.39553 6.72518 6.70336 2.41745 12.0001 2.41745C15.5605 2.41745 18.6592 4.35164 20.3076 7.20873L22.3956 6C20.3297 2.41745 16.4395 0 12.0001 0C5.36269 0 0 5.36264 0 12C0 18.6374 5.36269 24 12.0001 24C16.4395 24 20.3076 21.5825 22.3956 18.0221L20.3076 16.8352ZM63.7178 17.6485C64.2014 17.4066 64.5753 17.055 64.8609 16.6154V16.5715H64.9048V17.7363H66.3333V5.93402H64.8609V11.4507H64.8388C64.575 11.0989 64.2235 10.7913 63.7839 10.5276C63.3224 10.2857 62.7949 10.1539 62.2015 10.1539C61.6519 10.1539 61.1466 10.2638 60.6851 10.4616C60.2234 10.6593 59.8279 10.9451 59.4982 11.2967C59.1906 11.6703 58.9268 12.066 58.7509 12.5496C58.575 13.011 58.4872 13.5167 58.4872 14.0659C58.4872 14.6155 58.575 15.1208 58.7509 15.6044C58.9268 16.0879 59.1685 16.5055 59.4982 16.8573C59.8059 17.2088 60.2016 17.4947 60.663 17.6924C61.1027 17.8901 61.6301 18 62.2015 18C62.7289 18 63.2346 17.8901 63.7178 17.6485ZM60.1356 15.0551C60.0257 14.7472 59.9818 14.4177 59.9818 14.0659C59.9818 13.7365 60.0478 13.4067 60.1356 13.0331C60.2234 12.7034 60.3993 12.4176 60.597 12.1759C60.8169 11.934 61.0588 11.7363 61.3664 11.5825C61.6519 11.4287 62.0258 11.3627 62.4213 11.3627C62.7949 11.3627 63.1465 11.4287 63.4544 11.5825C63.762 11.7363 64.0258 11.934 64.2453 12.1759C64.4651 12.4176 64.641 12.7034 64.7509 13.0331C64.8608 13.3628 64.9269 13.6923 64.9269 14.0441C64.9269 14.3957 64.8608 14.7254 64.7509 15.0551C64.641 15.3846 64.4651 15.6704 64.2453 15.9123C64.0258 16.176 63.762 16.3517 63.4544 16.5055C63.1465 16.6593 62.7949 16.7253 62.4213 16.7253C62.0258 16.7253 61.674 16.6593 61.3664 16.5055C61.0588 16.3517 60.795 16.1539 60.597 15.9123C60.3993 15.6704 60.2455 15.3846 60.1356 15.0551ZM41.4399 17.5162C42.1212 17.1426 42.6928 16.659 43.1322 16.0656L41.9455 15.2305C41.594 15.714 41.1762 16.0876 40.6708 16.3293C40.1652 16.5712 39.5938 16.7029 38.9783 16.7029C38.3409 16.7029 37.7477 16.5712 37.2421 16.3514C36.7146 16.1315 36.275 15.8018 35.9234 15.4064C35.5498 15.0106 35.2861 14.5492 35.0884 13.9996C34.8906 13.4504 34.8025 12.8569 34.8025 12.2414C34.8025 11.6261 34.9124 11.0547 35.1102 10.527C35.3082 9.99955 35.5719 9.51628 35.9455 9.12055C36.3192 8.70301 36.7588 8.39537 37.2642 8.15346C37.7698 7.91183 38.363 7.80192 39.0004 7.80192C39.5717 7.80192 40.0992 7.93365 40.6048 8.17556C41.0884 8.41719 41.4838 8.72482 41.7475 9.09846L42.9565 8.15346C42.7585 7.86792 42.4951 7.62601 42.2093 7.40619C41.9234 7.18637 41.5937 7.01074 41.2422 6.85692C40.8906 6.7031 40.5388 6.59319 40.1434 6.52719C39.7476 6.46119 39.374 6.41728 39.0004 6.41728C38.1432 6.41728 37.3741 6.54901 36.6486 6.83483C35.9234 7.12065 35.3082 7.5161 34.7807 8.02173C34.2533 8.5271 33.8575 9.14264 33.5499 9.84573C33.2641 10.5712 33.1103 11.3624 33.1103 12.2196C33.1103 13.0767 33.2641 13.8679 33.5499 14.5713C33.8357 15.2965 34.2533 15.9117 34.7586 16.4174C35.2861 16.9448 35.9016 17.3403 36.605 17.6261C37.3081 17.9119 38.0993 18.0657 38.9346 18.0657C39.9014 18.0657 40.7365 17.8898 41.4399 17.5162ZM44.5801 10.3735C44.6019 10.6151 44.624 10.9007 44.624 11.2086C44.624 11.5162 44.624 11.7799 44.6019 11.9777V17.7799H46.0746V13.8897C46.0746 13.5821 46.1185 13.2745 46.2066 12.9887C46.2723 12.7031 46.4043 12.4612 46.58 12.2414C46.7559 12.0216 46.9757 11.8459 47.2394 11.7139C47.5031 11.5822 47.8108 11.5162 48.1623 11.5162C48.4042 11.5162 48.6459 11.5601 48.8439 11.604L48.9099 10.2415C48.7558 10.1976 48.5581 10.1755 48.3382 10.1755C47.8547 10.1755 47.3932 10.3075 46.9978 10.5712C46.58 10.8349 46.2723 11.1865 46.0746 11.6261H46.0307C46.0307 11.5579 46.0263 11.4811 46.0215 11.3956L46.0215 11.3953V11.3952C46.0154 11.2879 46.0086 11.167 46.0086 11.0327C46.0086 10.7714 45.9869 10.5749 45.9653 10.379L45.9647 10.3735H44.5801ZM56.9327 14.0215V14.2631C56.9327 14.3512 56.9324 14.439 56.9106 14.505H51.0205C51.0205 14.8126 51.1083 15.0985 51.2403 15.384C51.3721 15.6477 51.548 15.8896 51.7675 16.0874C51.9873 16.2851 52.2292 16.4389 52.5151 16.5709C52.8006 16.6808 53.1082 16.7468 53.438 16.7468C53.9436 16.7468 54.3612 16.6369 54.7348 16.4171C55.1084 16.1973 55.394 15.9335 55.5917 15.6259L56.6248 16.461C56.2293 16.9885 55.7676 17.3621 55.2183 17.6258C54.6909 17.8677 54.0753 17.9995 53.438 17.9995C52.8666 17.9995 52.361 17.9116 51.8774 17.7139C51.3939 17.5159 50.9763 17.2743 50.6469 16.9225C50.2951 16.593 50.0313 16.1752 49.8336 15.6916C49.6359 15.2084 49.526 14.6809 49.526 14.0875C49.526 13.5161 49.6138 12.9886 49.8115 12.5051C50.0092 12.0215 50.273 11.604 50.6248 11.2522C50.9763 10.9006 51.3721 10.6369 51.8556 10.4392C52.3171 10.2412 52.8224 10.1534 53.372 10.1534C53.9215 10.1534 54.4051 10.2412 54.8447 10.4171C55.2841 10.593 55.658 10.8567 55.9656 11.1862C56.2732 11.5159 56.5149 11.9335 56.6687 12.3952C56.8446 12.9005 56.9327 13.428 56.9327 14.0215ZM55.4379 13.428C55.4379 13.1422 55.3721 12.8566 55.2843 12.6147C55.1962 12.351 55.0642 12.1315 54.8886 11.9555C54.7127 11.7578 54.4929 11.6258 54.2512 11.5159C53.9875 11.406 53.7017 11.3621 53.3501 11.3621C53.0425 11.3621 52.7346 11.406 52.4709 11.5159C52.1853 11.6258 51.9655 11.7796 51.7457 11.9555C51.548 12.1533 51.3721 12.3731 51.2403 12.6147C51.1083 12.8787 51.0423 13.1422 51.0205 13.428H55.4379ZM70.6048 7.71353C70.6048 7.97725 70.517 8.21916 70.3192 8.3948C70.1212 8.57071 69.9017 8.65852 69.638 8.65852C69.3742 8.65852 69.1323 8.57071 68.9564 8.3948C68.7808 8.21916 68.6709 7.99934 68.6709 7.73562C68.6709 7.47189 68.7587 7.22998 68.9564 7.05434C69.1323 6.87843 69.3742 6.79062 69.638 6.79062C69.9017 6.79062 70.1433 6.87843 70.3192 7.05434C70.517 7.20816 70.6048 7.42771 70.6048 7.71353ZM70.3631 17.7796H68.8904V10.3729H70.3631V17.7796ZM74.5749 11.5822H76.5309V10.3735H74.5528V8.24154H73.1024V10.3735H71.6739V11.5822H73.1024V15.6041C73.1024 16.3732 73.2783 16.9448 73.6517 17.3403C74.0253 17.7139 74.5528 17.9119 75.2561 17.9119C75.476 17.9119 75.6958 17.9119 75.9156 17.8677C76.1351 17.8238 76.3331 17.7799 76.5091 17.7139L76.4649 16.5052C76.355 16.5712 76.2011 16.6151 76.0473 16.6369C75.8935 16.659 75.7397 16.6811 75.608 16.6811C75.2561 16.6811 74.9924 16.593 74.8165 16.3953C74.6627 16.1975 74.5749 15.8678 74.5749 15.4282V11.5822ZM83.2648 12.2637C83.111 12.0218 82.8693 11.8241 82.5614 11.6703C82.2538 11.5164 81.9241 11.4283 81.5725 11.4283C81.1768 11.4283 80.8474 11.4943 80.5397 11.6482C80.2318 11.802 79.9902 12 79.7924 12.2416C79.5944 12.4835 79.4188 12.7691 79.3089 13.0988C79.199 13.4285 79.1551 13.7583 79.1551 14.1098C79.1551 14.4613 79.199 14.8132 79.3089 15.1208C79.4188 15.4505 79.5726 15.7361 79.7924 15.978C79.9902 16.2196 80.2539 16.4176 80.5615 16.5714C80.8694 16.7253 81.1989 16.7913 81.5946 16.7913C81.9683 16.7913 82.3198 16.7253 82.6274 16.5714C82.9351 16.4176 83.177 16.2196 83.3747 15.978L84.3639 16.8791C84.056 17.2527 83.6605 17.5382 83.1988 17.7362C82.7374 17.934 82.2099 18.0439 81.5946 18.0439C81.023 18.0439 80.4958 17.9561 80.0123 17.7581C79.5287 17.5603 79.1112 17.3187 78.7593 16.9669C78.4078 16.6374 78.122 16.2196 77.9242 15.7363C77.7265 15.2528 77.6166 14.7251 77.6166 14.1319C77.6166 13.5384 77.7044 13.011 77.9242 12.5274C78.122 12.0439 78.4078 11.6263 78.7593 11.2966C79.1112 10.9451 79.5287 10.6813 80.0123 10.5054C80.4958 10.3077 81.023 10.2196 81.5725 10.2196C82.1 10.2196 82.6056 10.3295 83.1331 10.5273C83.6384 10.7253 84.056 11.0329 84.3639 11.4283L83.2648 12.2637ZM92.9809 15.648C93.1787 15.1645 93.2886 14.637 93.2886 14.0657C93.2886 13.4943 93.2005 12.9668 92.9809 12.5051C92.7829 12.0218 92.4974 11.6261 92.1456 11.2746C91.794 10.9227 91.3544 10.659 90.8708 10.4613C90.3873 10.2633 89.8598 10.1755 89.2885 10.1755C88.7171 10.1755 88.1897 10.2633 87.7061 10.4613C87.2008 10.659 86.7829 10.9227 86.4314 11.2746C86.0799 11.6261 85.794 12.0218 85.5963 12.5051C85.3983 12.9668 85.2884 13.4943 85.2884 14.0657C85.2884 14.637 85.3983 15.1645 85.5963 15.648C85.794 16.1316 86.0799 16.5491 86.4314 16.9009C86.805 17.2525 87.2226 17.5162 87.7061 17.7139C88.1897 17.9119 88.7171 17.9997 89.2885 17.9997C89.8598 17.9997 90.3873 17.9119 90.8708 17.7139C91.3544 17.5162 91.794 17.2525 92.1456 16.9009C92.4974 16.5491 92.7829 16.1316 92.9809 15.648ZM91.6181 13.0547C91.7062 13.3844 91.7719 13.7141 91.7719 14.0657C91.7719 14.4172 91.7062 14.769 91.6181 15.0767C91.5082 15.4064 91.3544 15.6919 91.1349 15.9338C90.9369 16.1755 90.6731 16.3732 90.3655 16.5273C90.0579 16.6811 89.706 16.7468 89.3106 16.7468C88.9148 16.7468 88.5633 16.6811 88.2557 16.5273C87.948 16.3732 87.7061 16.1755 87.4863 15.9338C87.2665 15.6919 87.1127 15.4064 87.0028 15.0767C86.8929 14.7469 86.8489 14.4172 86.8489 14.0657C86.8489 13.7141 86.8929 13.3844 87.0028 13.0547C87.1127 12.7249 87.2665 12.4394 87.4863 12.1975C87.684 11.9337 87.948 11.7578 88.2557 11.604C88.5633 11.4502 88.9148 11.3842 89.3106 11.3842C89.706 11.3842 90.0579 11.4502 90.3655 11.604C90.6731 11.7578 90.915 11.9558 91.1349 12.1975C91.3544 12.4394 91.5082 12.7249 91.6181 13.0547ZM97.0454 7.71353C97.0454 7.97725 96.9573 8.21916 96.7596 8.3948C96.5619 8.57071 96.3421 8.65852 96.0783 8.65852C95.8146 8.65852 95.5727 8.57071 95.3971 8.3948C95.2212 8.21916 95.1112 7.99934 95.1112 7.73562C95.1112 7.47189 95.1991 7.22998 95.3971 7.05434C95.5727 6.87843 95.8146 6.79062 96.0783 6.79062C96.3421 6.79062 96.5837 6.87843 96.7596 7.05434C96.9355 7.20816 97.0454 7.42771 97.0454 7.71353ZM96.8035 17.7796H95.3311V10.3729H96.8035V17.7796ZM100.689 10.3795L100.689 10.3735V10.3514H99.2821C99.3041 10.593 99.326 10.8788 99.326 11.1865C99.3481 11.4941 99.3481 11.7578 99.3481 11.9558V17.7578H100.821V13.8237C100.821 13.0765 100.996 12.4833 101.37 12.0437C101.744 11.604 102.205 11.3842 102.799 11.3842C103.128 11.3842 103.414 11.4502 103.634 11.5822C103.832 11.7139 104.007 11.8898 104.139 12.0876C104.271 12.3074 104.359 12.549 104.403 12.813C104.447 13.0767 104.469 13.3623 104.469 13.6699V17.7799H105.942V13.1867C105.942 12.7688 105.898 12.3952 105.788 12.0218C105.678 11.67 105.502 11.3403 105.282 11.0766C105.063 10.791 104.777 10.5712 104.425 10.4174C104.095 10.2636 103.678 10.1755 103.194 10.1755C102.909 10.1755 102.645 10.2194 102.403 10.2854C102.161 10.3514 101.919 10.4613 101.722 10.593C101.524 10.725 101.326 10.8788 101.172 11.0547C101.018 11.2304 100.887 11.4063 100.798 11.604H100.755C100.755 11.5358 100.75 11.459 100.745 11.3736L100.745 11.3733V11.3733V11.3732C100.739 11.2659 100.733 11.1451 100.733 11.0106C100.733 10.7714 100.711 10.5753 100.689 10.3796L100.689 10.3795ZM14.0979 10.8136H24.0099V13.1875H14.0979C13.7021 13.9126 12.911 14.3962 12.0318 14.3962C10.7131 14.3962 9.63628 13.3192 9.63628 12.0005C9.63628 10.6819 10.7131 9.60491 12.0318 9.60491C12.911 9.60491 13.6801 10.0885 14.0979 10.8136Z" fill="black"/>
</g>
<defs>
<clipPath id="clip0_11020_43112">
<rect width="106" height="24" fill="white"/>
</clipPath>
</defs>
</svg>

<svg xmlns="http://www.w3.org/2000/svg" fill="none" viewBox="0 0 106 24">
  <g clip-path="url(#creditcoin-logo-light_svg__a)">
    <path fill="#000" fill-rule="evenodd" d="M20.308 16.835c-1.67 2.857-4.77 4.791-8.308 4.791-5.297 0-9.604-4.307-9.604-9.604 0-5.297 4.307-9.605 9.604-9.605a9.58 9.58 0 0 1 8.308 4.792L22.396 6A11.997 11.997 0 0 0 12 0C5.363 0 0 5.363 0 12s5.363 12 12 12c4.44 0 8.308-2.418 10.396-5.978l-2.088-1.187Zm43.41.813a2.884 2.884 0 0 0 1.143-1.033v-.043h.044v1.164h1.428V5.934h-1.472v5.517h-.022a3.626 3.626 0 0 0-1.055-.923 3.362 3.362 0 0 0-1.582-.374c-.55 0-1.055.11-1.517.308a3.516 3.516 0 0 0-1.187.835c-.307.373-.571.769-.747 1.253a4.224 4.224 0 0 0-.264 1.516c0 .55.088 1.055.264 1.538.176.484.418.902.747 1.253a3.23 3.23 0 0 0 1.165.835c.44.198.967.308 1.539.308.527 0 1.033-.11 1.516-.352Zm-3.582-2.593a2.917 2.917 0 0 1-.154-.99c0-.329.066-.658.154-1.032.087-.33.263-.615.461-.857.22-.242.462-.44.77-.594.285-.153.659-.22 1.054-.22.374 0 .726.067 1.033.22.308.154.572.352.791.594.22.242.396.527.506.857.11.33.176.66.176 1.011 0 .352-.066.681-.176 1.011-.11.33-.286.615-.506.857-.22.264-.483.44-.79.594a2.31 2.31 0 0 1-1.034.22c-.395 0-.747-.067-1.055-.22a2.33 2.33 0 0 1-.769-.594 2.679 2.679 0 0 1-.461-.857ZM41.44 17.516a5.166 5.166 0 0 0 1.692-1.45l-1.186-.835c-.352.483-.77.857-1.275 1.098a3.9 3.9 0 0 1-1.693.374 4.37 4.37 0 0 1-1.736-.352 3.624 3.624 0 0 1-1.319-.945c-.373-.395-.637-.857-.835-1.406a5.175 5.175 0 0 1-.285-1.759c0-.615.11-1.186.307-1.714.198-.527.462-1.01.836-1.406a4.102 4.102 0 0 1 1.318-.968c.506-.241 1.099-.351 1.736-.351.572 0 1.1.132 1.605.374.483.241.879.549 1.143.922l1.209-.945a3.449 3.449 0 0 0-.748-.747 4.608 4.608 0 0 0-.967-.55 4.554 4.554 0 0 0-1.099-.329A6.923 6.923 0 0 0 39 6.417c-.857 0-1.626.132-2.351.418a5.653 5.653 0 0 0-1.868 1.187c-.528.505-.923 1.12-1.231 1.824a6.423 6.423 0 0 0-.44 2.374c0 .857.154 1.648.44 2.351a5.396 5.396 0 0 0 3.055 3.055c.703.286 1.494.44 2.33.44.966 0 1.801-.176 2.505-.55Zm3.14-7.142c.022.241.044.527.044.835 0 .307 0 .57-.022.769v5.802h1.473v-3.89c0-.308.043-.616.132-.901.065-.286.197-.528.373-.748.176-.22.396-.395.66-.527a2.03 2.03 0 0 1 .922-.198c.242 0 .484.044.682.088l.066-1.362a2.154 2.154 0 0 0-.572-.067c-.483 0-.945.132-1.34.396a2.38 2.38 0 0 0-.923 1.055h-.044c0-.068-.005-.145-.01-.23a6.198 6.198 0 0 1-.012-.363c0-.262-.022-.458-.044-.654v-.005H44.58Zm12.353 3.647v.242a.83.83 0 0 1-.022.242h-5.89c0 .308.087.593.22.879.131.264.307.506.526.703.22.198.462.352.748.484.286.11.593.176.923.176.506 0 .923-.11 1.297-.33.373-.22.659-.484.857-.791l1.033.835a3.745 3.745 0 0 1-1.407 1.165 4.3 4.3 0 0 1-1.78.373 4.027 4.027 0 0 1-1.56-.285c-.484-.198-.902-.44-1.231-.791-.352-.33-.616-.748-.813-1.231a4.174 4.174 0 0 1-.308-1.604c0-.572.088-1.1.285-1.583.198-.484.462-.901.814-1.253a3.642 3.642 0 0 1 1.23-.813c.462-.198.967-.286 1.517-.286.55 0 1.033.088 1.473.264.44.176.813.44 1.12.77.308.329.55.747.704 1.208a4.85 4.85 0 0 1 .264 1.627Zm-1.495-.593c0-.286-.066-.571-.154-.813a1.661 1.661 0 0 0-.395-.66 1.856 1.856 0 0 0-.638-.44c-.264-.109-.55-.153-.9-.153-.309 0-.616.044-.88.154a2.66 2.66 0 0 0-.725.44 2.928 2.928 0 0 0-.506.659 2.132 2.132 0 0 0-.22.813h4.418Zm15.167-5.714a.88.88 0 0 1-.286.68.982.982 0 0 1-.681.265.946.946 0 0 1-.682-.264.914.914 0 0 1-.285-.66.88.88 0 0 1 .285-.68.946.946 0 0 1 .682-.264c.264 0 .505.087.681.263.198.154.286.374.286.66Zm-.242 10.066H68.89v-7.407h1.473v7.407Zm4.212-6.198h1.956v-1.209h-1.978V8.242h-1.45v2.131h-1.43v1.21h1.43v4.021c0 .77.175 1.34.549 1.736.373.374.9.572 1.604.572.22 0 .44 0 .66-.044.22-.044.417-.088.593-.154l-.044-1.209c-.11.066-.264.11-.418.132a3.276 3.276 0 0 1-.439.044c-.352 0-.616-.088-.791-.286-.154-.197-.242-.527-.242-.967v-3.846Zm8.69.682c-.154-.242-.396-.44-.704-.594a2.19 2.19 0 0 0-.989-.242c-.395 0-.725.066-1.032.22a2.24 2.24 0 0 0-.748.594 2.714 2.714 0 0 0-.483.857c-.11.33-.154.66-.154 1.01 0 .352.044.704.154 1.012.11.33.264.615.483.857.198.242.462.44.77.593.307.154.637.22 1.033.22.373 0 .725-.066 1.032-.22.308-.153.55-.351.748-.593l.989.901c-.308.374-.704.66-1.165.857a4.015 4.015 0 0 1-1.604.308c-.572 0-1.1-.088-1.583-.286-.483-.198-.9-.44-1.253-.791a3.491 3.491 0 0 1-.835-1.23 4.177 4.177 0 0 1-.307-1.605c0-.594.087-1.121.307-1.605.198-.483.484-.9.835-1.23.352-.352.77-.616 1.253-.792a4.102 4.102 0 0 1 1.56-.285c.528 0 1.034.11 1.561.307.505.198.923.506 1.23.901l-1.098.836Zm9.716 3.384a4.144 4.144 0 0 0 .308-1.582c0-.572-.088-1.1-.308-1.56a3.7 3.7 0 0 0-.835-1.231c-.352-.352-.792-.616-1.275-.814-.484-.198-1.011-.286-1.582-.286-.572 0-1.1.088-1.583.286a3.62 3.62 0 0 0-1.275.814 3.7 3.7 0 0 0-.835 1.23 3.95 3.95 0 0 0-.308 1.56c0 .572.11 1.1.308 1.583.198.484.484.901.835 1.253a4.07 4.07 0 0 0 1.275.813c.484.198 1.011.286 1.582.286.572 0 1.1-.088 1.583-.286.483-.198.923-.461 1.275-.813.351-.352.637-.77.835-1.253Zm-1.363-2.593c.088.33.154.66.154 1.01 0 .352-.066.704-.154 1.012a2.36 2.36 0 0 1-.483.857c-.198.242-.462.44-.77.593-.307.154-.659.22-1.054.22-.396 0-.748-.066-1.055-.22a2.58 2.58 0 0 1-.77-.593 2.35 2.35 0 0 1-.483-.857c-.11-.33-.154-.66-.154-1.011 0-.352.044-.682.154-1.011.11-.33.263-.616.483-.857.198-.264.462-.44.77-.594.307-.154.659-.22 1.055-.22.395 0 .747.066 1.054.22.308.154.55.352.77.594.22.241.373.527.483.857Zm5.427-5.341a.881.881 0 0 1-.285.68.982.982 0 0 1-.682.265.945.945 0 0 1-.68-.264.913.913 0 0 1-.287-.66.88.88 0 0 1 .286-.68.945.945 0 0 1 .681-.264c.264 0 .506.087.682.263a.843.843 0 0 1 .285.66Zm-.242 10.066h-1.472v-7.407h1.472v7.407Zm3.886-7.4v-.03h-1.407c.022.242.044.528.044.835.022.308.022.572.022.77v5.802h1.473v-3.934c0-.748.175-1.34.549-1.78.374-.44.835-.66 1.429-.66.329 0 .615.066.835.198.198.132.373.308.505.506.132.22.22.461.264.725.044.264.066.55.066.857v4.11h1.473v-4.593c0-.418-.044-.792-.154-1.165a2.79 2.79 0 0 0-.506-.945 2.134 2.134 0 0 0-.857-.66c-.33-.153-.747-.242-1.231-.242-.285 0-.549.044-.791.11a2.388 2.388 0 0 0-.681.308 2.788 2.788 0 0 0-.55.462 2.238 2.238 0 0 0-.374.549h-.043c0-.068-.005-.145-.01-.23a6.343 6.343 0 0 1-.012-.363c0-.24-.022-.436-.044-.631Zm-86.591.434h9.912v2.373h-9.912a2.358 2.358 0 0 1-2.066 1.21A2.401 2.401 0 0 1 9.636 12a2.401 2.401 0 0 1 2.396-2.396c.879 0 1.648.483 2.066 1.209Z" clip-rule="evenodd"/>
  </g>
  <defs>
    <clipPath id="creditcoin-logo-light_svg__a">
      <path fill="#fff" d="M0 0h106v24H0z"/>
    </clipPath>
  </defs>
</svg>
